X:52
T:Quadrille de Rivière du Loup
R:reel
M:4/4
L:1/8
K:D
AB |: A2G2 F2A2 | f4 f2ef | g2fg fed2 | B4 BAGA |
G2F2G2A2 | e4 efed | c2AB cBA2 |1 F4 FGAB :|2 d4- d3A |:
defg a2aa | a^gab afde | fed2 B4 | BABc B2BB |
Bdef g2gg | gfga geAB | cBA2 F4 | FEFG F3A :|
